ZE_CCUX_APP/src/nrg/asset/img/icon/chaione/cc-mastercard.svg

<?xml version="1.0" encoding="utf-8"?>
<!-- Generator: Adobe Illustrator 18.1.1, SVG Export Plug-In . SVG Version: 6.00 Build 0)  -->
<svg version="1.1" xmlns="http://www.w3.org/2000/svg" xmlns:xlink="http://www.w3.org/1999/xlink" x="0px" y="0px"
	 viewBox="0 0 20.1 13.9" enable-background="new 0 0 20.1 13.9" xml:space="preserve">
<g id="Layer_2_copy">
</g>
<g id="Layer_2">
</g>
<g id="Layer_1">
</g>
<g id="Layer_6">
</g>
<g id="Used_Elements">
	<g id="Not_Used">
	</g>
	<g>
		<path fill="none" stroke="#9698A9" stroke-width="0.75" stroke-miterlimit="10" d="M18.7,13.5H1.4c-0.6,0-1-0.4-1-1V1.4
			c0-0.6,0.4-1,1-1h17.4c0.6,0,1,0.4,1,1v11.1C19.7,13.1,19.3,13.5,18.7,13.5z"/>
		<g>
			<path id="path2268" fill="#9698A9" d="M16.9,6.9c0,2.3-1.8,4.1-4.1,4.1c-2.3,0-4.1-1.8-4.1-4.1v0c0-2.3,1.8-4.1,4.1-4.1
				C15.1,2.8,16.9,4.7,16.9,6.9L16.9,6.9z"/>
			<path id="path1350" fill="#898A95" d="M7.3,2.8C5,2.8,3.2,4.7,3.2,6.9c0,2.3,1.8,4.1,4.1,4.1c1.1,0,2-0.4,2.8-1.1l0,0h0
				c0.1-0.1,0.3-0.3,0.4-0.4H9.6C9.5,9.4,9.4,9.3,9.3,9.1h1.5C10.9,9,11,8.8,11,8.7H9.1C9,8.5,9,8.4,8.9,8.3h2.3
				c0.1-0.4,0.2-0.8,0.2-1.3c0-0.3,0-0.6-0.1-0.9H8.8c0-0.1,0.1-0.3,0.1-0.4h2.3c-0.1-0.2-0.1-0.3-0.2-0.4H9.1
				C9.2,5,9.2,4.9,9.3,4.8h1.5c-0.1-0.2-0.2-0.3-0.3-0.4H9.7C9.8,4.2,9.9,4,10.1,3.9C9.3,3.2,8.4,2.8,7.3,2.8
				C7.3,2.8,7.3,2.8,7.3,2.8z"/>
			<g>
				<g id="g13802" transform="translate(-13.74405,15.9939)">
					<path id="path13804" fill="#56575B" d="M22.4-7.9l0.1-0.4c0,0-0.1,0-0.1,0c-0.2,0-0.2-0.1-0.2-0.1l0.2-0.7h0.2l0-0.4h-0.2
						l0-0.3H22c0,0-0.3,1.4-0.3,1.6c0,0.3,0.1,0.4,0.3,0.4C22.2-7.8,22.4-7.9,22.4-7.9z"/>
					<path id="path13806" fill="#56575B" d="M22.5-8.6c0,0.6,0.4,0.8,0.8,0.8c0.3,0,0.5-0.1,0.5-0.1l0.1-0.4c0,0-0.3,0.1-0.5,0.1
						c-0.5,0-0.4-0.4-0.4-0.4l0.9,0c0,0,0.1-0.3,0.1-0.4c0-0.3-0.2-0.6-0.6-0.6C22.9-9.6,22.5-9.1,22.5-8.6z M23.3-9.2
						c0.2,0,0.2,0.3,0.2,0.3H23C23-8.9,23.1-9.2,23.3-9.2z"/>
					<path id="path13808" fill="#56575B" d="M26.1-7.9l0.1-0.5c0,0-0.2,0.1-0.4,0.1c-0.3,0-0.4-0.2-0.4-0.5c0-0.5,0.3-0.8,0.6-0.8
						c0.2,0,0.4,0.1,0.4,0.1l0.1-0.5c0,0-0.2-0.2-0.4-0.2c-0.7,0-1.1,0.5-1.1,1.3c0,0.5,0.3,0.9,0.8,0.9C25.9-7.8,26.1-7.9,26.1-7.9
						z"/>
					<path id="path13810" fill="#56575B" d="M20-9.6c-0.3,0-0.5,0.1-0.5,0.1l-0.1,0.4c0,0,0.2-0.1,0.5-0.1c0.2,0,0.3,0,0.3,0.2
						c0,0.1,0,0.1,0,0.1s-0.1,0-0.2,0c-0.4,0-0.8,0.2-0.8,0.6c0,0.4,0.3,0.5,0.4,0.5C19.9-7.8,20-8,20-8l0,0.2h0.4l0.2-1.2
						C20.6-9.6,20.2-9.6,20-9.6z M20.1-8.6c0,0.1,0,0.4-0.3,0.4c-0.1,0-0.2-0.1-0.2-0.2C19.6-8.5,19.7-8.6,20.1-8.6
						C20.1-8.6,20.1-8.6,20.1-8.6z"/>
					<path id="path13812" fill="#56575B" d="M21-7.8c0.1,0,0.7,0,0.7-0.6c0-0.5-0.5-0.4-0.5-0.7c0-0.1,0.1-0.1,0.2-0.1
						c0.1,0,0.3,0,0.3,0l0.1-0.4c0,0-0.2,0-0.4,0c-0.3,0-0.7,0.1-0.7,0.6c0,0.5,0.5,0.5,0.5,0.7c0,0.1-0.2,0.2-0.3,0.2
						c-0.2,0-0.4-0.1-0.4-0.1l-0.1,0.4C20.5-7.9,20.6-7.8,21-7.8z"/>
					<path id="path13814" fill="#56575B" d="M29.7-9.9l-0.1,0.6c0,0-0.2-0.2-0.4-0.2c-0.5,0-0.7,0.5-0.7,1c0,0.4,0.2,0.7,0.5,0.7
						c0.3,0,0.4-0.2,0.4-0.2l0,0.2h0.4l0.3-2.1L29.7-9.9z M29.5-8.8c0,0.2-0.1,0.5-0.4,0.5c-0.2,0-0.2-0.1-0.2-0.3
						c0-0.3,0.2-0.6,0.3-0.6C29.4-9.1,29.5-9,29.5-8.8z"/>
					<path id="path13816" fill="#56575B" d="M17.6-7.8l0.3-1.6l0,1.6h0.3l0.6-1.6l-0.2,1.6H19l0.3-2.1l-0.7,0l-0.4,1.3l0-1.3h-0.7
						l-0.4,2.1H17.6L17.6-7.8z"/>
					<path id="path13818" fill="#56575B" d="M24.4-7.8c0.1-0.7,0.2-1.3,0.5-1.2c0.1-0.3,0.2-0.5,0.2-0.6c0,0,0,0-0.1,0
						c-0.2,0-0.5,0.4-0.5,0.4l0-0.2h-0.4l-0.3,1.7H24.4L24.4-7.8z"/>
					<g id="use14699" transform="translate(845.3001,0)">
						<path id="path13810_1_" fill="#56575B" d="M-818.3-9.6c-0.3,0-0.5,0.1-0.5,0.1l-0.1,0.4c0,0,0.2-0.1,0.5-0.1
							c0.2,0,0.3,0,0.3,0.2c0,0.1,0,0.1,0,0.1s-0.1,0-0.2,0c-0.4,0-0.8,0.2-0.8,0.6c0,0.4,0.3,0.5,0.4,0.5c0.3,0,0.4-0.2,0.4-0.2
							l0,0.2h0.4l0.2-1.2C-817.7-9.6-818.1-9.6-818.3-9.6z M-818.2-8.6c0,0.1,0,0.4-0.3,0.4c-0.1,0-0.2-0.1-0.2-0.2
							C-818.7-8.5-818.6-8.6-818.2-8.6C-818.2-8.6-818.2-8.6-818.2-8.6z"/>
					</g>
					<path id="use14701" fill="#56575B" d="M28.1-7.8c0.1-0.5,0.2-1.3,0.5-1.2c0.1-0.3,0-0.3-0.1-0.3c-0.2,0-0.2,0-0.2,0l0-0.2h-0.4
						l-0.3,1.7H28.1L28.1-7.8z"/>
				</g>
				<path id="path4157" fill="#FFFFFF" d="M8.8,8l0.1-0.4c0,0-0.1,0-0.1,0c-0.2,0-0.2-0.1-0.2-0.1l0.1-0.8h0.2L9,6.3H8.8l0-0.3H8.4
					c0,0-0.3,1.4-0.3,1.6c0,0.3,0.1,0.4,0.3,0.4C8.6,8,8.7,8,8.8,8z"/>
				<path id="path4155" fill="#FFFFFF" d="M8.9,7.3C8.9,7.9,9.3,8,9.7,8C10,8,10.1,8,10.1,8l0.1-0.4c0,0-0.2,0.1-0.5,0.1
					c-0.5,0-0.4-0.4-0.4-0.4h0.9c0,0,0.1-0.3,0.1-0.4c0-0.3-0.1-0.6-0.6-0.6C9.2,6.3,8.9,6.7,8.9,7.3z M9.7,6.7
					c0.2,0,0.2,0.3,0.2,0.3H9.4C9.4,6.9,9.4,6.7,9.7,6.7z"/>
				<path id="path4151" fill="#FFFFFF" d="M12.5,8l0.1-0.5c0,0-0.2,0.1-0.4,0.1c-0.3,0-0.4-0.2-0.4-0.5c0-0.5,0.3-0.8,0.6-0.8
					c0.2,0,0.4,0.1,0.4,0.1L12.8,6c0,0-0.3-0.1-0.5-0.1c-0.5,0-1,0.4-1,1.3c0,0.5,0.3,0.9,0.8,0.9C12.2,8.1,12.5,8,12.5,8z"/>
				<path id="path4149" fill="#FFFFFF" d="M6.4,6.3c-0.3,0-0.5,0.1-0.5,0.1L5.8,6.8c0,0,0.2-0.1,0.5-0.1c0.2,0,0.3,0,0.3,0.2
					c0,0.1,0,0.1,0,0.1s-0.1,0-0.2,0C6,6.9,5.6,7.1,5.6,7.6C5.6,8,5.8,8,6,8c0.3,0,0.4-0.2,0.4-0.2l0,0.2h0.4L7,6.8
					C7,6.3,6.5,6.3,6.4,6.3z M6.5,7.3c0,0.1,0,0.4-0.3,0.4C6,7.7,6,7.6,6,7.5C6,7.4,6,7.3,6.5,7.3C6.4,7.3,6.5,7.3,6.5,7.3z"/>
				<path id="path4145" fill="#FFFFFF" d="M7.4,8C7.5,8,8,8.1,8,7.5C8,6.9,7.5,7,7.5,6.8c0-0.1,0.1-0.1,0.2-0.1c0.1,0,0.3,0,0.3,0
					l0.1-0.4c0,0-0.2,0-0.4,0c-0.3,0-0.7,0.1-0.7,0.6c0,0.5,0.5,0.5,0.5,0.7c0,0.1-0.2,0.2-0.3,0.2c-0.2,0-0.4-0.1-0.4-0.1L6.9,8
					C6.9,8,7,8,7.4,8z"/>
				<path id="path4139" fill="#FFFFFF" d="M16.1,5.9L16,6.5c0,0-0.2-0.2-0.4-0.2c-0.4,0-0.7,0.5-0.7,1C14.8,7.7,15,8,15.4,8
					c0.3,0,0.4-0.2,0.4-0.2l0,0.2h0.4l0.3-2.1L16.1,5.9z M15.9,7.1c0,0.2-0.1,0.5-0.4,0.5c-0.2,0-0.2-0.1-0.2-0.3
					c0-0.3,0.2-0.6,0.3-0.6C15.8,6.7,15.9,6.8,15.9,7.1z"/>
				<path id="path4133" fill="#FFFFFF" d="M4,8l0.3-1.6l0,1.6h0.3l0.6-1.6L4.9,8h0.4l0.3-2.1H5L4.6,7.2l0-1.3H3.9L3.6,8H4z"/>
				<path id="path4149_1_" fill="#FFFFFF" d="M13.5,6.3c-0.3,0-0.5,0.1-0.5,0.1l-0.1,0.4c0,0,0.2-0.1,0.5-0.1c0.2,0,0.3,0,0.3,0.2
					c0,0.1,0,0.1,0,0.1s-0.1,0-0.2,0c-0.4,0-0.8,0.2-0.8,0.6C12.7,8,12.9,8,13.1,8c0.3,0,0.4-0.2,0.4-0.2l0,0.2h0.4l0.2-1.2
					C14.1,6.3,13.6,6.3,13.5,6.3z M13.6,7.3c0,0.1,0,0.4-0.3,0.4c-0.1,0-0.2-0.1-0.2-0.2C13.1,7.4,13.1,7.3,13.6,7.3
					C13.5,7.3,13.6,7.3,13.6,7.3z"/>
				<path id="path4131_1_" fill="#FFFFFF" d="M14.4,8c0.1-0.7,0.2-1.3,0.5-1.2C14.9,6.5,15,6.4,15,6.3c0,0,0,0-0.1,0
					c-0.2,0-0.3,0.3-0.3,0.3l0-0.2h-0.4L14,8H14.4z"/>
				<path id="path4131" fill="#FFFFFF" d="M10.7,8c0.1-0.7,0.2-1.3,0.5-1.2c0.1-0.3,0.1-0.4,0.2-0.5c0,0,0,0-0.1,0
					c-0.2,0-0.3,0.3-0.3,0.3l0-0.2h-0.4L10.3,8H10.7z"/>
			</g>
		</g>
	</g>
</g>
<g id="Layer_7">
</g>
</svg>

<?xml version="1.0" encoding="UTF-8" standalone="no"?>
<svg width="21px" height="14px" viewBox="0 0 21 14" version="1.1" xmlns="http://www.w3.org/2000/svg" xmlns:xlink="http://www.w3.org/1999/xlink" xmlns:sketch="http://www.bohemiancoding.com/sketch/ns">
    <!-- Generator: Sketch 3.3.1 (12005) - http://www.bohemiancoding.com/sketch -->
    <title>Slice 1</title>
    <desc>Created with Sketch.</desc>
    <defs></defs>
    <g id="Page-1" stroke="none" stroke-width="1" fill="none" fill-rule="evenodd" sketch:type="MSPage">
        <g id="cc-mastercard" sketch:type="MSLayerGroup">
            <g id="Group" sketch:type="MSShapeGroup">
                <path d="M18.7,13.5 L1.4,13.5 C0.8,13.5 0.4,13.1 0.4,12.5 L0.4,1.4 C0.4,0.8 0.8,0.4 1.4,0.4 L18.8,0.4 C19.4,0.4 19.8,0.8 19.8,1.4 L19.8,12.5 C19.7,13.1 19.3,13.5 18.7,13.5 L18.7,13.5 Z" id="Shape" stroke="#898A95" stroke-width="0.75"></path>
                <path d="M9.95,9.87365284 C10.6823864,10.5747997 11.6821376,11 12.8,11 C15.1,11 16.9,9.2 16.9,6.9 C16.9,4.7 15.1,2.8 12.8,2.8 C11.6725171,2.8 10.665187,3.23255047 9.93115033,3.944511 C9.20050431,3.24117826 8.20830193,2.8 7.1,2.8 C4.8,2.8 3,4.6 3,6.9 C3,9.2 4.8,11 7.1,11 C8.21786239,11 9.2176136,10.5747997 9.95,9.87365284 L9.95,9.87365284 Z M8.8,8 L8.9,7.6 L8.8,7.6 C8.6,7.6 8.6,7.5 8.6,7.5 L8.7,6.7 L8.9,6.7 L9,6.3 L8.8,6.3 L8.8,6 L8.4,6 C8.4,6 8.1,7.4 8.1,7.6 C8.1,7.9 8.2,8 8.4,8 L8.8,8 Z M8.9,7.3 C8.9,7.9 9.3,8 9.7,8 L10.1,8 L10.2,7.6 C10.2,7.6 10,7.7 9.7,7.7 C9.2,7.7 9.3,7.3 9.3,7.3 L10.2,7.3 C10.2,7.3 10.3,7 10.3,6.9 C10.3,6.6 10.2,6.3 9.7,6.3 C9.2,6.3 8.9,6.7 8.9,7.3 Z M9.7,6.7 C9.9,6.7 9.9,7 9.9,7 L9.4,7 C9.4,6.9 9.4,6.7 9.7,6.7 Z M12.5,8 L12.6,7.5 C12.6,7.5 12.4,7.6 12.2,7.6 C11.9,7.6 11.8,7.4 11.8,7.1 C11.8,6.6 12.1,6.3 12.4,6.3 C12.6,6.3 12.8,6.4 12.8,6.4 L12.8,6 C12.8,6 12.5,5.9 12.3,5.9 C11.8,5.9 11.3,6.3 11.3,7.2 C11.3,7.7 11.6,8.1 12.1,8.1 C12.2,8.1 12.5,8 12.5,8 Z M6.4,6.3 C6.1,6.3 5.9,6.4 5.9,6.4 L5.8,6.8 C5.8,6.8 6,6.7 6.3,6.7 C6.5,6.7 6.6,6.7 6.6,6.9 L6.6,7 L6.4,7 C6,6.9 5.6,7.1 5.6,7.6 C5.6,8 5.8,8 6,8 C6.3,8 6.4,7.8 6.4,7.8 L6.4,8 L6.8,8 L7,6.8 C7,6.3 6.5,6.3 6.4,6.3 Z M6.5,7.3 C6.5,7.4 6.5,7.7 6.2,7.7 C6,7.7 6,7.6 6,7.5 C6,7.4 6,7.3 6.5,7.3 C6.4,7.3 6.5,7.3 6.5,7.3 Z M7.4,8 C7.5,8 8,8.1 8,7.5 C8,6.9 7.5,7 7.5,6.8 C7.5,6.7 7.6,6.7 7.7,6.7 L8,6.7 L8.1,6.3 L7.7,6.3 C7.4,6.3 7,6.4 7,6.9 C7,7.4 7.5,7.4 7.5,7.6 C7.5,7.7 7.3,7.8 7.2,7.8 C7,7.8 6.8,7.7 6.8,7.7 L6.9,8 L7.4,8 Z M16.1,5.9 L16,6.5 C16,6.5 15.8,6.3 15.6,6.3 C15.2,6.3 14.9,6.8 14.9,7.3 C14.8,7.7 15,8 15.4,8 C15.7,8 15.8,7.8 15.8,7.8 L15.8,8 L16.2,8 L16.5,5.9 L16.1,5.9 Z M15.9,7.1 C15.9,7.3 15.8,7.6 15.5,7.6 C15.3,7.6 15.3,7.5 15.3,7.3 C15.3,7 15.5,6.7 15.6,6.7 C15.8,6.7 15.9,6.8 15.9,7.1 Z M4,8 L4.3,6.4 L4.3,8 L4.6,8 L5.2,6.4 L4.9,8 L5.3,8 L5.6,5.9 L5,5.9 L4.6,7.2 L4.6,5.9 L3.9,5.9 L3.6,8 L4,8 Z M13.5,6.3 C13.2,6.3 13,6.4 13,6.4 L12.9,6.8 C12.9,6.8 13.1,6.7 13.4,6.7 C13.6,6.7 13.7,6.7 13.7,6.9 L13.7,7 L13.5,7 C13.1,7 12.7,7.2 12.7,7.6 C12.7,8 12.9,8 13.1,8 C13.4,8 13.5,7.8 13.5,7.8 L13.5,8 L13.9,8 L14.1,6.8 C14.1,6.3 13.6,6.3 13.5,6.3 Z M13.6,7.3 C13.6,7.4 13.6,7.7 13.3,7.7 C13.2,7.7 13.1,7.6 13.1,7.5 C13.1,7.4 13.1,7.3 13.6,7.3 C13.5,7.3 13.6,7.3 13.6,7.3 Z M14.4,8 C14.5,7.3 14.6,6.7 14.9,6.8 C14.9,6.5 15,6.4 15,6.3 C15,6.3 15,6.3 14.9,6.3 C14.7,6.3 14.6,6.6 14.6,6.6 L14.6,6.4 L14.2,6.4 L14,8 L14.4,8 Z M10.7,8 C10.8,7.3 10.9,6.7 11.2,6.8 C11.3,6.5 11.3,6.4 11.4,6.3 C11.4,6.3 11.4,6.3 11.3,6.3 C11.1,6.3 11,6.6 11,6.6 L11,6.4 L10.6,6.4 L10.3,8 L10.7,8 Z" id="path2268" fill="#898A95"></path>
            </g>
        </g>
    </g>
</svg>
